icons/bluetooth-connect-fill.svg

<svg xmlns="http://www.w3.org/2000/svg" width="24" height="24" fill="none"><g clip-path="url(#a)"><g><path fill="#121212" d="M14.341 12.03L18.684 16.373L13.028 22.029H11.028V15.343L6.664 19.707L5.249 18.293L11.028 12.515V11.545L5.249 5.76499L6.664 4.35099L11.028 8.71499V2.02899H13.028L18.684 7.68599L14.341 12.029V12.03ZM13.028 13.544V19.201L15.856 16.373L13.028 13.544ZM13.028 10.514L15.856 7.68599L13.028 4.85799V10.515V10.514ZM19.5 13.5C19.1022 13.5 18.7206 13.342 18.4393 13.0607C18.158 12.7793 18 12.3978 18 12C18 11.6022 18.158 11.2206 18.4393 10.9393C18.7206 10.658 19.1022 10.5 19.5 10.5C19.8978 10.5 20.2794 10.658 20.5607 10.9393C20.842 11.2206 21 11.6022 21 12C21 12.3978 20.842 12.7793 20.5607 13.0607C20.2794 13.342 19.8978 13.5 19.5 13.5ZM6.5 13.5C6.10218 13.5 5.72064 13.342 5.43934 13.0607C5.15804 12.7793 5 12.3978 5 12C5 11.6022 5.15804 11.2206 5.43934 10.9393C5.72064 10.658 6.10218 10.5 6.5 10.5C6.89782 10.5 7.27936 10.658 7.56066 10.9393C7.84196 11.2206 8 11.6022 8 12C8 12.3978 7.84196 12.7793 7.56066 13.0607C7.27936 13.342 6.89782 13.5 6.5 13.5Z"/></g></g><defs><clipPath id="a"><rect width="24" height="24" fill="white"/></clipPath></defs></svg>

<svg width="24" height="24" fill="none" xmlns="http://www.w3.org/2000/svg"><g clip-path="url(#a)"><path d="m14.341 12.03 4.343 4.343-5.656 5.656h-2v-6.686l-4.364 4.364-1.415-1.414 5.779-5.778v-.97l-5.779-5.78 1.415-1.414 4.364 4.364V2.029h2l5.656 5.657-4.343 4.343v.001Zm-1.313 1.514v5.657l2.828-2.828-2.828-2.829Zm0-3.03 2.828-2.828-2.828-2.828v5.657-.001ZM19.5 13.5a1.5 1.5 0 1 1 0-3 1.5 1.5 0 0 1 0 3Zm-13 0a1.5 1.5 0 1 1 0-3 1.5 1.5 0 0 1 0 3Z" /></g><defs><clipPath id="a"><path fill="#fff" d="M0 0h24v24H0z"/></clipPath></defs></svg>
